X: 1202
T: Green Grow the Rashes/John Black's Daughter
P: Green Grow the Rashes
C:MacGibbon, 1742, here from Nath. Gow's Repository
R:Strathspey (8x32)
B:RSCDS 12-2
Z:Anselm Lingnau <anselm@strathspey.org>
M:4/4
L:1/8
K:Em
D/|"G"G>G B>A B<G G>B|"Am"A>A e>d e<A A>B|\
   c>d ec "Bm"B>c dB|"Am"A>c "Bm"B>A "Em"G<E E>D|
   "G"G>G B>A B<G G>B|"Am"A>A e>d e<A A>B|\
   c>d ec "Bm"B>c dB|"Am"A>c "Bm"B>A "Em"G<E E3/2||
F/|"G"G2 g>f g<d d>g|"Am"e2 a>g a<e e>f|\
   "Em"g>a ge "G"d/c/B/A/ G>B|"Am"A>c "G"B>A "Em"G<E E3/2 F/|
   "G"G2 g>f g<d d>g|"Am"e2 a>g a<e e>f|\
   "G"g>b "Am"e>g "G"d<g B>g|"Am"A/B/c "B"B>A "Em"G<E E3/2|]
%%center Book12/1202-Green_Grow_the_Rashes_John_Blacks_Daughter-AL.abc

%%sep 1 1 500
%%sep 1 1 500

